build/svg/cmd/sc_datadatapilotrun.svg

<svg xmlns="http://www.w3.org/2000/svg" viewBox="0 0 16 16"><path fill="#fff" fill-rule="evenodd" d="M2 5h2v8H2z"/><path fill="#a6d74f" fill-rule="evenodd" d="M2 2h11v2H2z"/><path d="M1 3v9c0 2 1 2 3 2h1V5h9V3c0-2-1-2-3-2H4C2 1 1 1 1 3zm1 0c0-1 1-1 2-1v2H2zm3-1h2v2H5zm3 0h2v2H8zm3 0c1 0 2 0 2 1v1h-2zM2 5h2v2H2zm0 3h2v2H2zm0 3h2v2c-1 0-2 0-2-1z" fill="#6d6d6d" fill-rule="evenodd"/><path d="M7 11l3-2v1h2c1 0 1 0 1-2h2v1c0 2 0 3-2 3h-3v1z" opacity=".6" stroke="#000" stroke-width="2" stroke-linejoin="round"/><path d="M7 11l3-2v1h2c1 0 1 0 1-2h2v1c0 2 0 3-2 3h-3v1z" fill="#fff"/></svg>

<?xml version="1.0" encoding="UTF-8" standalone="no"?>
<svg
   xmlns:dc="http://purl.org/dc/elements/1.1/"
   xmlns:cc="http://creativecommons.org/ns#"
   xmlns:rdf="http://www.w3.org/1999/02/22-rdf-syntax-ns#"
   xmlns:svg="http://www.w3.org/2000/svg"
   xmlns="http://www.w3.org/2000/svg"
   xmlns:sodipodi="http://sodipodi.sourceforge.net/DTD/sodipodi-0.dtd"
   xmlns:inkscape="http://www.inkscape.org/namespaces/inkscape"
   viewBox="0 0 16 16"
   version="1.1"
   id="svg6"
   sodipodi:docname="sc_datadatapilotrun.svg"
   inkscape:export-filename="/home/jupiter007/Libreoffice yaru theme fullcolor/build/cmd/sc_datadatapilotrun.png"
   inkscape:export-xdpi="96"
   inkscape:export-ydpi="96"
   inkscape:version="0.92.5 (2060ec1f9f, 2020-04-08)">
  <metadata
     id="metadata12">
    <rdf:RDF>
      <cc:Work
         rdf:about="">
        <dc:format>image/svg+xml</dc:format>
        <dc:type
           rdf:resource="http://purl.org/dc/dcmitype/StillImage" />
      </cc:Work>
    </rdf:RDF>
  </metadata>
  <defs
     id="defs10" />
  <sodipodi:namedview
     pagecolor="#ffffff"
     bordercolor="#666666"
     borderopacity="1"
     objecttolerance="10"
     gridtolerance="10"
     guidetolerance="10"
     inkscape:pageopacity="0"
     inkscape:pageshadow="2"
     inkscape:window-width="1920"
     inkscape:window-height="1011"
     id="namedview8"
     showgrid="true"
     inkscape:zoom="20.85965"
     inkscape:cx="9.1467286"
     inkscape:cy="9.0972976"
     inkscape:window-x="0"
     inkscape:window-y="32"
     inkscape:window-maximized="1"
     inkscape:current-layer="svg6">
    <inkscape:grid
       type="xygrid"
       id="grid822" />
  </sodipodi:namedview>
  <rect
     style="opacity:1;fill:#ffffff;fill-opacity:1;fill-rule:evenodd;stroke:none;stroke-width:2;stroke-linecap:butt;stroke-linejoin:round;stroke-miterlimit:4;stroke-dasharray:none;stroke-opacity:1"
     id="rect843"
     width="2"
     height="8"
     x="2"
     y="5" />
  <rect
     style="opacity:1;fill:#a6d74f;fill-opacity:1;fill-rule:evenodd;stroke:none;stroke-width:2;stroke-linecap:butt;stroke-linejoin:round;stroke-miterlimit:4;stroke-dasharray:none;stroke-opacity:1"
     id="rect845"
     width="11"
     height="2"
     x="2"
     y="2" />
  <path
     style="opacity:1;fill:#6d6d6d;fill-opacity:1;fill-rule:evenodd;stroke:none;stroke-width:2;stroke-linecap:butt;stroke-linejoin:round;stroke-miterlimit:4;stroke-dasharray:none;stroke-opacity:1"
     d="m 1,3 v 2 7 c 0,2 1,2 3,2 H 5 V 5 h 9 V 3 C 14,1 13,1 11,1 H 5 4 C 2,1 1,1 1,3 Z M 2,3 C 2,2 3,2 4,2 V 4 H 2 Z M 5,2 H 7 V 4 H 5 Z m 3,0 h 2 V 4 H 8 Z m 3,0 c 1,0 2,0 2,1 V 4 H 11 Z M 2,5 H 4 V 7 H 2 Z m 0,3 h 2 v 2 H 2 Z m 0,3 h 2 v 2 C 3,13 2,13 2,12 Z"
     id="rect824"
     inkscape:connector-curvature="0"
     sodipodi:nodetypes="ccccccccccccccccccccccccccccccccccccccccccccccc" />
  <path
     inkscape:connector-curvature="0"
     style="opacity:0.6;fill:#000000;fill-opacity:1;stroke:#000000;stroke-width:2;stroke-linecap:butt;stroke-linejoin:round;stroke-miterlimit:4;stroke-dasharray:none;stroke-opacity:1"
     d="M 7.0000003,11 10,9 v 1 h 2 c 1,0 1,0 1,-2 h 2 v 1 c 0,2 0,3 -2,3 h -3 v 1 z"
     id="path865"
     sodipodi:nodetypes="ccccccccccc" />
  <path
     sodipodi:nodetypes="ccccccccccc"
     id="path841"
     d="M 7.0000003,11 10,9 v 1 h 2 c 1,0 1,0 1,-2 h 2 v 1 c 0,2 0,3 -2,3 h -3 v 1 z"
     style="fill:#ffffff;fill-opacity:1;stroke:none;stroke-width:1px;stroke-linecap:butt;stroke-linejoin:miter;stroke-opacity:1"
     inkscape:connector-curvature="0" />
</svg>
